src/icons/svgs/24/chevron-down.svg

<svg width="24" height="24" viewBox="0 0 24 24" fill="none" xmlns="http://www.w3.org/2000/svg">
<path d="M3.30924 8.60063L11.2883 15.7051C11.5555 15.9139 11.806 16 12.019 16C12.2319 16 12.5188 15.9139 12.7117 15.7405L20.6907 8.63602C21.0913 8.28091 21.1043 7.6916 20.7207 7.32066C20.3397 6.9472 19.7032 6.93506 19.3049 7.29277L12.019 13.779L4.69545 7.26044C4.29879 6.90274 3.6608 6.91488 3.27959 7.28834C2.89588 7.65777 2.90841 8.24754 3.30924 8.60063Z" fill="black"/>
</svg>

<svg width="24" height="24" viewBox="0 0 24 24" xmlns="http://www.w3.org/2000/svg">
    <path d="m3.31 8.6 7.978 7.105c.268.209.518.295.731.295.213 0 .5-.086.693-.26l7.979-7.104a.883.883 0 0 0 .03-1.315 1.051 1.051 0 0 0-1.416-.028l-7.286 6.486L4.695 7.26a1.051 1.051 0 0 0-1.415.028.879.879 0 0 0 .03 1.313z"/>
</svg>
